dist/images/risk-1.svg

<svg width="48" height="45" viewBox="0 0 48 45" fill="none" xmlns="http://www.w3.org/2000/svg">
<path d="M5.625 8.4375H33.9375V16.875H5.625V8.4375Z" fill="#4D5A65"/>
<path d="M19.7812 8.4375H33.9375V16.875H19.7812V8.4375Z" fill="#112E49"/>
<path d="M5.625 22.5H33.9375V30.9375H5.625V22.5Z" fill="#4D5A65"/>
<path d="M19.7812 22.5H33.9375V30.9375H19.7812V22.5Z" fill="#112E49"/>
<path d="M38.1562 0H1.40625C0.61853 0 0 0.61853 0 1.40625V9.84375C0 10.6311 0.61853 11.25 1.40625 11.25H38.1562C38.944 11.25 39.5625 10.6311 39.5625 9.84375V1.40625C39.5625 0.61853 38.944 0 38.1562 0Z" fill="url(#paint0_linear_747_297752)"/>
<path d="M39.5625 1.40625V9.84375C39.5625 10.6311 38.944 11.25 38.1562 11.25H19.7812V0H38.1562C38.944 0 39.5625 0.61853 39.5625 1.40625Z" fill="black" fill-opacity="0.2"/>
<path d="M8.4375 5.625C8.4375 6.40173 7.80798 7.03125 7.03125 7.03125C6.25452 7.03125 5.625 6.40173 5.625 5.625C5.625 4.84827 6.25452 4.21875 7.03125 4.21875C7.80798 4.21875 8.4375 4.84827 8.4375 5.625Z" fill="#25D9F8"/>
<path d="M14.0625 5.625C14.0625 6.40173 13.433 7.03125 12.6562 7.03125C11.8795 7.03125 11.25 6.40173 11.25 5.625C11.25 4.84827 11.8795 4.21875 12.6562 4.21875C13.433 4.21875 14.0625 4.84827 14.0625 5.625Z" fill="#25D9F8"/>
<path d="M38.1562 14.0625H1.40625C0.61853 14.0625 0 14.681 0 15.4688V23.9062C0 24.6936 0.61853 25.3125 1.40625 25.3125H38.1562C38.944 25.3125 39.5625 24.6936 39.5625 23.9062V15.4688C39.5625 14.681 38.944 14.0625 38.1562 14.0625Z" fill="url(#paint1_linear_747_297752)"/>
<path d="M39.5625 15.4688V23.9062C39.5625 24.6936 38.944 25.3125 38.1562 25.3125H19.7812V14.0625H38.1562C38.944 14.0625 39.5625 14.681 39.5625 15.4688Z" fill="black" fill-opacity="0.2"/>
<path d="M8.4375 19.6875C8.4375 20.4642 7.80798 21.0938 7.03125 21.0938C6.25452 21.0938 5.625 20.4642 5.625 19.6875C5.625 18.9108 6.25452 18.2812 7.03125 18.2812C7.80798 18.2812 8.4375 18.9108 8.4375 19.6875Z" fill="#25D9F8"/>
<path d="M14.0625 19.6875C14.0625 20.4642 13.433 21.0938 12.6562 21.0938C11.8795 21.0938 11.25 20.4642 11.25 19.6875C11.25 18.9108 11.8795 18.2812 12.6562 18.2812C13.433 18.2812 14.0625 18.9108 14.0625 19.6875Z" fill="#25D9F8"/>
<path d="M38.1562 28.125H1.40625C0.61853 28.125 0 28.7435 0 29.5312V37.9688C0 38.7561 0.61853 39.375 1.40625 39.375H38.1562C38.944 39.375 39.5625 38.7561 39.5625 37.9688V29.5312C39.5625 28.7435 38.944 28.125 38.1562 28.125Z" fill="url(#paint2_linear_747_297752)"/>
<path d="M39.5625 29.5312V37.9688C39.5625 38.7561 38.944 39.375 38.1562 39.375H19.7812V28.125H38.1562C38.944 28.125 39.5625 28.7435 39.5625 29.5312Z" fill="black" fill-opacity="0.2"/>
<path d="M8.4375 33.75C8.4375 34.5267 7.80798 35.1562 7.03125 35.1562C6.25452 35.1562 5.625 34.5267 5.625 33.75C5.625 32.9733 6.25452 32.3438 7.03125 32.3438C7.80798 32.3438 8.4375 32.9733 8.4375 33.75Z" fill="#25D9F8"/>
<path d="M14.0625 33.75C14.0625 34.5267 13.433 35.1562 12.6562 35.1562C11.8795 35.1562 11.25 34.5267 11.25 33.75C11.25 32.9733 11.8795 32.3438 12.6562 32.3438C13.433 32.3438 14.0625 32.9733 14.0625 33.75Z" fill="#25D9F8"/>
<path d="M47.0438 22.5842L38.6063 19.7717C38.4657 19.7157 38.3251 19.6875 38.1562 19.6875C37.9874 19.6875 37.8468 19.7157 37.7062 19.7717L29.2687 22.5842C28.7062 22.7531 28.3125 23.2874 28.3125 23.9062V31.8937C28.3125 37.7999 32.0812 43.0594 37.7062 44.9154C37.8468 44.9718 38.0156 45 38.1562 45C38.2969 45 38.4657 44.9718 38.6063 44.9154C44.2313 43.0594 48 37.7999 48 31.8937V23.9062C48 23.2874 47.6063 22.7531 47.0438 22.5842Z" fill="url(#paint3_linear_747_297752)"/>
<path d="M31.125 31.8882V24.9203L36.75 23.0449V41.4379C33.3223 39.5365 31.125 35.915 31.125 31.8882Z" fill="#14A84F"/>
<path d="M45.1875 31.8885C45.1875 35.9154 42.9902 39.5369 39.5625 41.4382V23.0449L45.1875 24.9203V31.8885Z" fill="#14A84F"/>
<defs>
<linearGradient id="paint0_linear_747_297752" x1="19.7812" y1="0" x2="19.7812" y2="11.25" gradientUnits="userSpaceOnUse">
<stop stop-color="#B6B6B6"/>
<stop offset="1" stop-color="#8B8B8B"/>
</linearGradient>
<linearGradient id="paint1_linear_747_297752" x1="19.7812" y1="14.0625" x2="19.7812" y2="25.3125" gradientUnits="userSpaceOnUse">
<stop stop-color="#B6B6B6"/>
<stop offset="1" stop-color="#8B8B8B"/>
</linearGradient>
<linearGradient id="paint2_linear_747_297752" x1="19.7812" y1="28.125" x2="19.7812" y2="39.375" gradientUnits="userSpaceOnUse">
<stop stop-color="#B6B6B6"/>
<stop offset="1" stop-color="#8B8B8B"/>
</linearGradient>
<linearGradient id="paint3_linear_747_297752" x1="38.1562" y1="19.6875" x2="38.1562" y2="45" gradientUnits="userSpaceOnUse">
<stop stop-color="#43D26B"/>
<stop offset="1" stop-color="#1EB463"/>
</linearGradient>
</defs>
</svg>

<svg width="48" height="45" fill="none" xmlns="http://www.w3.org/2000/svg"><path d="M5.625 8.438h28.313v8.437H5.625V8.437z" fill="#4D5A65"/><path d="M19.781 8.438h14.157v8.437H19.78V8.437z" fill="#112E49"/><path d="M5.625 22.5h28.313v8.438H5.625V22.5z" fill="#4D5A65"/><path d="M19.781 22.5h14.157v8.438H19.78V22.5z" fill="#112E49"/><path d="M38.156 0H1.406C.62 0 0 .619 0 1.406v8.438c0 .787.619 1.406 1.406 1.406h36.75c.788 0 1.407-.619 1.407-1.406V1.406C39.563.62 38.944 0 38.156 0z" fill="url(#paint0_linear_747_297752)"/><path d="M39.563 1.406v8.438c0 .787-.619 1.406-1.407 1.406H19.781V0h18.375c.788 0 1.407.619 1.407 1.406z" fill="#000" fill-opacity=".2"/><path d="M8.438 5.625a1.406 1.406 0 11-2.813 0 1.406 1.406 0 012.813 0zm5.625 0a1.406 1.406 0 11-2.813 0 1.406 1.406 0 012.813 0z" fill="#25D9F8"/><path d="M38.156 14.063H1.406C.62 14.063 0 14.68 0 15.469v8.437c0 .788.619 1.407 1.406 1.407h36.75c.788 0 1.407-.62 1.407-1.407V15.47c0-.788-.619-1.406-1.407-1.406z" fill="url(#paint1_linear_747_297752)"/><path d="M39.563 15.469v8.437c0 .788-.619 1.407-1.407 1.407H19.781v-11.25h18.375c.788 0 1.407.618 1.407 1.406z" fill="#000" fill-opacity=".2"/><path d="M8.438 19.688a1.406 1.406 0 11-2.813 0 1.406 1.406 0 012.813 0zm5.625 0a1.406 1.406 0 11-2.813 0 1.406 1.406 0 012.813 0z" fill="#25D9F8"/><path d="M38.156 28.125H1.406C.62 28.125 0 28.744 0 29.531v8.438c0 .787.619 1.406 1.406 1.406h36.75c.788 0 1.407-.619 1.407-1.406V29.53c0-.787-.619-1.406-1.407-1.406z" fill="url(#paint2_linear_747_297752)"/><path d="M39.563 29.531v8.438c0 .787-.619 1.406-1.407 1.406H19.781v-11.25h18.375c.788 0 1.407.619 1.407 1.406z" fill="#000" fill-opacity=".2"/><path d="M8.438 33.75a1.406 1.406 0 11-2.813 0 1.406 1.406 0 012.813 0zm5.625 0a1.406 1.406 0 11-2.813 0 1.406 1.406 0 012.813 0z" fill="#25D9F8"/><path d="M47.044 22.584l-8.438-2.812a1.17 1.17 0 00-.45-.084c-.169 0-.31.028-.45.084l-8.437 2.812a1.368 1.368 0 00-.956 1.322v7.988c0 5.906 3.768 11.165 9.393 13.021.14.057.31.085.45.085s.31-.028.45-.085C44.231 43.06 48 37.8 48 31.894v-7.988c0-.619-.394-1.153-.956-1.322z" fill="url(#paint3_linear_747_297752)"/><path d="M31.125 31.888V24.92l5.625-1.875v18.393a10.91 10.91 0 01-5.625-9.55zm14.063.001a10.91 10.91 0 01-5.626 9.55V23.044l5.626 1.875v6.968z" fill="#14A84F"/><defs><linearGradient id="paint0_linear_747_297752" x1="19.781" y1="0" x2="19.781" y2="11.25" gradientUnits="userSpaceOnUse"><stop stop-color="#B6B6B6"/><stop offset="1" stop-color="#8B8B8B"/></linearGradient><linearGradient id="paint1_linear_747_297752" x1="19.781" y1="14.063" x2="19.781" y2="25.313" gradientUnits="userSpaceOnUse"><stop stop-color="#B6B6B6"/><stop offset="1" stop-color="#8B8B8B"/></linearGradient><linearGradient id="paint2_linear_747_297752" x1="19.781" y1="28.125" x2="19.781" y2="39.375" gradientUnits="userSpaceOnUse"><stop stop-color="#B6B6B6"/><stop offset="1" stop-color="#8B8B8B"/></linearGradient><linearGradient id="paint3_linear_747_297752" x1="38.156" y1="19.688" x2="38.156" y2="45" gradientUnits="userSpaceOnUse"><stop stop-color="#43D26B"/><stop offset="1" stop-color="#1EB463"/></linearGradient></defs></svg>
